components/Icon/svg/presentation.svg

<svg width="32" height="32" viewBox="0 0 32 32" fill="none" xmlns="http://www.w3.org/2000/svg">
<path fill-rule="evenodd" clip-rule="evenodd" d="M0.815704 0H30.181H30.1843C30.6346 0 31 0.3584 31 0.8V24.8C31 25.2416 30.6346 25.6 30.1843 25.6H17.4707L22.6031 30.6336C22.9213 30.9456 22.9213 31.4528 22.6031 31.7648C22.4433 31.92 22.2344 31.9984 22.0256 31.9984C21.8168 31.9984 21.608 31.9216 21.4481 31.7648L16.3157 26.7312V31.2C16.3157 31.6416 15.9503 32 15.5 32C15.0497 32 14.6843 31.6416 14.6843 31.2V26.7312L9.55189 31.7648C9.39201 31.92 9.18319 31.9984 8.97437 31.9984C8.76555 31.9984 8.55673 31.9216 8.39685 31.7648C8.07873 31.4528 8.07873 30.9456 8.39685 30.6336L13.5293 25.6H0.815704C0.365435 25.6 0 25.2416 0 24.8V0.8C0 0.3584 0.365435 0 0.815704 0ZM29.3653 1.6H1.63141V20.8H29.3653V1.6ZM29.3653 24H1.63141V22.4H29.3653V24ZM21.645 9.83488L13.3117 4.14699C13.0567 3.9731 12.725 3.95197 12.4483 4.09173C12.1717 4.23149 12 4.50939 12 4.81166V16.1874C12 16.4897 12.1733 16.7676 12.4483 16.9074C12.57 16.9691 12.7017 17 12.8333 17C13.0017 17 13.1683 16.9512 13.3117 16.8537L21.645 11.1658C21.8683 11.0131 22 10.7661 22 10.4995C22 10.233 21.8667 9.98602 21.645 9.83325V9.83488ZM13.6667 14.629V6.37502L19.7133 10.5028L13.6667 14.6306V14.629Z" fill="currentColor"/>
</svg>

<svg xmlns="http://www.w3.org/2000/svg" width="32" height="32" viewBox="0 0 32 32">
  <path fill="currentColor" fill-rule="evenodd" d="M.816 0h29.368c.45 0 .816.358.816.8v24c0 .442-.365.8-.816.8H17.471l5.132 5.034a.79.79 0 0 1 0 1.13.828.828 0 0 1-1.155 0l-5.132-5.033V31.2c0 .442-.366.8-.816.8a.808.808 0 0 1-.816-.8v-4.469l-5.132 5.034a.828.828 0 0 1-1.155 0 .79.79 0 0 1 0-1.131l5.132-5.034H.816A.808.808 0 0 1 0 24.8V.8C0 .358.365 0 .816 0Zm28.55 1.6H1.63v19.2h27.734V1.6Zm0 22.4H1.63v-1.6h27.734V24ZM21.644 9.835l-8.333-5.688a.853.853 0 0 0-.864-.055.808.808 0 0 0-.448.72v11.375c0 .303.173.58.448.72a.85.85 0 0 0 .864-.053l8.333-5.688a.805.805 0 0 0 .355-.667.81.81 0 0 0-.355-.666v.002Zm-7.978 4.794V6.375l6.046 4.128-6.046 4.128v-.002Z"/>
</svg>
